;FLAVOR:Marlin
;TIME:11938
;Filament used: 14.297m
;Layer height: 0.2
;Generated with Cura_SteamEngine 1.2.1
M104 S220
M109 S220
G90
G28
M132 X Y Z A
G1 Z100 F3300
G1 X-110.5 Y-74 F6000
M6 T0
M907 X100 Y100 Z60 A100
G1 Z0.6 F3300
G4 P2000
M108 T0

;LAYER_COUNT:111
;LAYER:0
M107
M204 S5000
G0 F2520 X-37.259 Y38.37 Z0.25
M204 S3000
;TYPE:SKIRT
G1 F1260 X-37.877 Y38.33 E0.02575
G1 X-38.485 Y38.211 E0.0515
G1 X-39.072 Y38.014 E0.07725
G1 X-39.629 Y37.744 E0.10298
G1 X-40.147 Y37.404 E0.12874
G1 X-40.617 Y37 E0.15451
G1 X-41.03 Y36.539 E0.18024
G1 X-41.381 Y36.029 E0.20598
G1 X-41.664 Y35.478 E0.23173
G1 X-41.873 Y34.895 E0.25748
G1 X-42.005 Y34.289 E0.28327
G1 X-42.059 Y33.57 E0.31325
G1 X-42.059 Y-46.697 E3.65036
G1 X-42.019 Y-47.315 E3.67611
G1 X-41.9 Y-47.923 E3.70186
G1 X-41.703 Y-48.51 E3.72761
G1 X-41.433 Y-49.067 E3.75334
G1 X-41.093 Y-49.585 E3.7791
G1 X-40.689 Y-50.055 E3.80487
G1 X-40.228 Y-50.468 E3.8306
G1 X-39.718 Y-50.819 E3.85634
G1 X-39.167 Y-51.102 E3.88209
G1 X-38.584 Y-51.311 E3.90784
G1 X-37.978 Y-51.443 E3.93363
G1 X-37.259 Y-51.497 E3.9636
G1 X43.009 Y-51.496 E7.30076
G1 X43.627 Y-51.456 E7.32651
G1 X44.235 Y-51.337 E7.35226
G1 X44.822 Y-51.14 E7.37801
G1 X45.379 Y-50.87 E7.40374
G1 X45.897 Y-50.53 E7.4295
G1 X46.367 Y-50.126 E7.45527
G1 X46.78 Y-49.665 E7.481
G1 X47.131 Y-49.155 E7.50674
G1 X47.414 Y-48.604 E7.53249
G1 X47.623 Y-48.021 E7.55824
G1 X47.755 Y-47.415 E7.58403
G1 X47.809 Y-46.696 E7.61401
G1 X47.809 Y33.57 E10.95108
G1 X47.769 Y34.188 E10.97682
G1 X47.65 Y34.796 E11.00258
G1 X47.453 Y35.383 E11.02832
G1 X47.183 Y35.94 E11.05406
G1 X46.843 Y36.458 E11.07982
G1 X46.439 Y36.928 E11.10559
G1 X45.978 Y37.341 E11.13132
G1 X45.468 Y37.692 E11.15706
G1 X44.917 Y37.975 E11.18281
G1 X44.334 Y38.184 E11.20856
G1 X43.728 Y38.316 E11.23435
G1 X43.009 Y38.37 E11.26432
G1 X-37.259 Y38.37 E14.60148
M204 S5000
G0 F2520 X-37.259 Y37.97
M204 S3000
G1 F1260 X-37.851 Y37.93 E14.62615
G1 X-38.431 Y37.811 E14.65076
G1 X-38.991 Y37.615 E14.67543
G1 X-39.519 Y37.345 E14.70009
G1 X-40.006 Y37.007 E14.72473
G1 X-40.443 Y36.606 E14.74939
G1 X-40.823 Y36.151 E14.77404
G1 X-41.137 Y35.648 E14.79869
G1 X-41.382 Y35.108 E14.82334
G1 X-41.551 Y34.539 E14.84802
G1 X-41.642 Y33.954 E14.87263
G1 X-41.659 Y33.57 E14.88861
G1 X-41.659 Y-46.697 E18.22573
G1 X-41.619 Y-47.289 E18.2504
G1 X-41.5 Y-47.869 E18.27501
G1 X-41.304 Y-48.429 E18.29968
G1 X-41.034 Y-48.957 E18.32433
G1 X-40.696 Y-49.444 E18.34898
G1 X-40.295 Y-49.881 E18.37364
G1 X-39.84 Y-50.261 E18.39828
G1 X-39.337 Y-50.575 E18.42294
G1 X-38.797 Y-50.82 E18.44759
G1 X-38.228 Y-50.989 E18.47227
G1 X-37.643 Y-51.08 E18.49688
G1 X-37.259 Y-51.097 E18.51286
G1 X43.009 Y-51.096 E21.85002
G1 X43.601 Y-51.056 E21.87469
G1 X44.182 Y-50.937 E21.89934
G1 X44.741 Y-50.741 E21.92397
G1 X45.269 Y-50.471 E21.94863
G1 X45.756 Y-50.133 E21.97327
G1 X46.193 Y-49.732 E21.99793
G1 X46.573 Y-49.277 E22.02258
G1 X46.887 Y-48.774 E22.04723
G1 X47.132 Y-48.234 E22.07188
G1 X47.301 Y-47.665 E22.09656
G1 X47.392 Y-47.079 E22.12122
G1 X47.409 Y-46.696 E22.13715
G1 X47.409 Y33.57 E25.47423
G1 X47.369 Y34.162 E25.4989
G1 X47.25 Y34.742 E25.52351
G1 X47.054 Y35.302 E25.54818
G1 X46.784 Y35.83 E25.57283
G1 X46.446 Y36.317 E25.59748
G1 X46.045 Y36.754 E25.62214
G1 X45.59 Y37.134 E25.64678
G1 X45.087 Y37.448 E25.67144
G1 X44.547 Y37.693 E25.69609
G1 X43.978 Y37.862 E25.72077
G1 X43.393 Y37.953 E25.74538
G1 X43.009 Y37.97 E25.76136
G1 X-37.259 Y37.97 E29.09852
M204 S5000
G0 F2520 X-37.259 Y37.57
M204 S3000
G1 F1260 X-37.823 Y37.53 E29.12202
G1 X-38.376 Y37.411 E29.14554
G1 X-38.906 Y37.215 E29.16904
G1 X-39.403 Y36.947 E29.19251
G1 X-39.858 Y36.611 E29.21603
G1 X-40.261 Y36.214 E29.23955
G1 X-40.603 Y35.764 E29.26304
G1 X-40.879 Y35.271 E29.28653
G1 X-41.083 Y34.743 E29.31007
G1 X-41.21 Y34.193 E29.33354
G1 X-41.259 Y33.57 E29.35952
G1 X-41.259 Y-46.697 E32.69663
G1 X-41.219 Y-47.261 E32.72014
G1 X-41.1 Y-47.814 E32.74366
G1 X-40.904 Y-48.344 E32.76715
G1 X-40.636 Y-48.841 E32.79062
G1 X-40.3 Y-49.296 E32.81414
G1 X-39.903 Y-49.699 E32.83766
G1 X-39.453 Y-50.041 E32.86116
G1 X-38.96 Y-50.317 E32.88465
G1 X-38.432 Y-50.521 E32.90818
G1 X-37.882 Y-50.648 E32.93165
G1 X-37.259 Y-50.697 E32.95763
G1 X43.009 Y-50.696 E36.29479
G1 X43.573 Y-50.656 E36.31829
G1 X44.126 Y-50.537 E36.34181
G1 X44.656 Y-50.341 E36.3653
G1 X45.153 Y-50.073 E36.38878
G1 X45.608 Y-49.737 E36.4123
G1 X46.011 Y-49.34 E36.43581
G1 X46.353 Y-48.89 E36.45931
G1 X46.629 Y-48.397 E36.4828
G1 X46.833 Y-47.869 E36.50634
G1 X46.96 Y-47.319 E36.5298
G1 X47.009 Y-46.696 E36.55579
G1 X47.009 Y33.57 E39.89286
G1 X46.969 Y34.134 E39.91637
G1 X46.85 Y34.687 E39.93988
G1 X46.654 Y35.217 E39.96338
G1 X46.386 Y35.714 E39.98685
G1 X46.05 Y36.169 E40.01037
G1 X45.653 Y36.572 E40.03389
G1 X45.203 Y36.914 E40.05739
G1 X44.71 Y37.19 E40.08088
G1 X44.182 Y37.394 E40.10441
G1 X43.632 Y37.521 E40.12788
G1 X43.009 Y37.57 E40.15386
G1 X-37.259 Y37.57 E43.49101
M204 S5000
G0 F2520 X-37.259 Y37.17
M204 S3000
G1 F1260 X-37.794 Y37.13 E43.51332
G1 X-38.317 Y37.011 E43.53562
G1 X-38.816 Y36.816 E43.55789
G1 X-39.281 Y36.548 E43.5802
G1 X-39.701 Y36.215 E43.60249
G1 X-40.067 Y35.823 E43.62479
G1 X-40.37 Y35.381 E43.64707
G1 X-40.605 Y34.898 E43.6694
G1 X-40.765 Y34.387 E43.69166
G1 X-40.848 Y33.857 E43.71396
G1 X-40.859 Y33.57 E43.7259
G1 X-40.859 Y-46.697 E47.06302
G1 X-40.819 Y-47.232 E47.08532
G1 X-40.7 Y-47.755 E47.10762
G1 X-40.505 Y-48.254 E47.1299
G1 X-40.237 Y-48.719 E47.15221
G1 X-39.904 Y-49.139 E47.17449
G1 X-39.512 Y-49.505 E47.19679
G1 X-39.07 Y-49.808 E47.21907
G1 X-38.587 Y-50.043 E47.2414
G1 X-38.076 Y-50.203 E47.26366
G1 X-37.546 Y-50.286 E47.28597
G1 X-37.259 Y-50.297 E47.29791
G1 X43.009 Y-50.296 E50.63506
G1 X43.544 Y-50.256 E50.65737
G1 X44.067 Y-50.137 E50.67967
G1 X44.566 Y-49.942 E50.70194
G1 X45.031 Y-49.674 E50.72425
G1 X45.451 Y-49.341 E50.74654
G1 X45.817 Y-48.949 E50.76883
G1 X46.12 Y-48.507 E50.79111
G1 X46.355 Y-48.024 E50.81345
G1 X46.515 Y-47.513 E50.83571
G1 X46.598 Y-46.983 E50.85801
G1 X46.609 Y-46.696 E50.86995
G1 X46.609 Y33.57 E54.20702
G1 X46.569 Y34.105 E54.22933
G1 X46.45 Y34.628 E54.25163
G1 X46.255 Y35.127 E54.2739
G1 X45.987 Y35.592 E54.29622
G1 X45.654 Y36.012 E54.3185
G1 X45.262 Y36.378 E54.3408
G1 X44.82 Y36.681 E54.36308
G1 X44.337 Y36.916 E54.38541
G1 X43.826 Y37.076 E54.40767
G1 X43.296 Y37.159 E54.42997
G1 X43.009 Y37.17 E54.44191
G1 X-37.259 Y37.17 E57.77907
M204 S5000
G0 F2520 X-37.259 Y36.77
M204 S3000
G1 F1260 X-37.763 Y36.73 E57.80009
G1 X-38.254 Y36.611 E57.82109
G1 X-38.721 Y36.417 E57.84212
G1 X-39.151 Y36.151 E57.86314
G1 X-39.534 Y35.821 E57.88416
G1 X-39.86 Y35.434 E57.9052
G1 X-40.121 Y35.001 E57.92622
G1 X-40.311 Y34.533 E57.94722
G1 X-40.424 Y34.04 E57.96824
G1 X-40.459 Y33.57 E57.98784
G1 X-40.459 Y-46.697 E61.32495
G1 X-40.419 Y-47.201 E61.34597
G1 X-40.3 Y-47.692 E61.36698
G1 X-40.106 Y-48.159 E61.388
G1 X-39.84 Y-48.589 E61.40902
G1 X-39.51 Y-48.972 E61.43004
G1 X-39.123 Y-49.298 E61.45108
G1 X-38.69 Y-49.559 E61.4721
G1 X-38.222 Y-49.749 E61.4931
G1 X-37.729 Y-49.862 E61.51412
G1 X-37.259 Y-49.897 E61.53372
G1 X43.009 Y-49.896 E64.87087
G1 X43.513 Y-49.856 E64.89189
G1 X44.004 Y-49.737 E64.9129
G1 X44.471 Y-49.543 E64.93392
G1 X44.901 Y-49.277 E64.95494
G1 X45.284 Y-48.947 E64.97596
G1 X45.61 Y-48.56 E64.997
G1 X45.871 Y-48.127 E65.01802
G1 X46.061 Y-47.659 E65.03902
G1 X46.174 Y-47.166 E65.06005
G1 X46.209 Y-46.696 E65.07964
G1 X46.209 Y33.57 E68.41671
G1 X46.169 Y34.074 E68.43773
G1 X46.05 Y34.565 E68.45874
G1 X45.856 Y35.032 E68.47976
G1 X45.59 Y35.462 E68.50078
G1 X45.26 Y35.845 E68.5218
G1 X44.873 Y36.171 E68.54284
G1 X44.44 Y36.432 E68.56386
G1 X43.972 Y36.622 E68.58486
G1 X43.479 Y36.735 E68.60589
G1 X43.009 Y36.77 E68.62548
G1 X-37.259 Y36.77 E71.96264
M204 S5000
G1 F1500 E69.96264
G0 F2520 X-36.654 Y34.244
G0 X-36.654 Y32.965
G0 X-36.268 Y32.579
M204 S3000
;TYPE:WALL-INNER
G1 F1500 E72.04579
G1 F1260 X-36.268 Y-45.706 E75.3005
G1 X42.018 Y-45.706 E78.55525
G1 X42.018 Y32.579 E81.80997
G1 X-36.268 Y32.579 E85.06472
M204 S5000
G0 F2520 X-36.668 Y32.979
M204 S3000
G1 F1260 X-36.668 Y-46.106 E88.35269
G1 X42.418 Y-46.106 E91.64071
G1 X42.418 Y32.979 E94.92868
G1 X-36.668 Y32.979 E98.21669
M204 S5000
G0 F2520 X-37.068 Y33.379
M204 S3000
;TYPE:WALL-OUTER
G1 F1260 X-37.068 Y-46.506 E101.53792
G1 X42.818 Y-46.506 E104.8592
G1 X42.818 Y33.379 E108.18043
G1 X-37.068 Y33.379 E111.5017
M204 S5000
G0 F2520 X-37.068 Y33.179
G0 X-36.598 Y32.909
G0 X-36.068 Y32.379
G1 F1260 X-35.785 Y32.096 E111.52533
M204 S3000
;TYPE:SKIN
G1 X-36.198 Y31.684
M204 S5000
G0 F2520 X-36.128 Y31.188
M204 S3000
G1 F1260 X-34.877 Y32.439 E111.59889
G1 X-34.807 Y32.509
M204 S5000
G0 F2520 X-34.311 Y32.439
M204 S3000
G1 F1260 X-36.128 Y30.622 E111.70572
G1 X-36.198 Y30.552
M204 S5000
G0 F2520 X-36.128 Y30.056
M204 S3000
G1 F1260 X-33.745 Y32.439 E111.84583
G1 X-33.675 Y32.509
M204 S5000
G0 F2520 X-33.18 Y32.439
M204 S3000
G1 F1260 X-36.128 Y29.491 E112.01916
G1 X-36.198 Y29.421
M204 S5000
G0 F2520 X-36.128 Y28.925
M204 S3000
G1 F1260 X-32.614 Y32.439 E112.22577
G1 X-32.544 Y32.509
M204 S5000
G0 F2520 X-32.048 Y32.439
M204 S3000
G1 F1260 X-36.128 Y28.359 E112.46566
G1 X-36.198 Y28.289
M204 S5000
G0 F2520 X-36.128 Y27.794
M204 S3000
G1 F1260 X-31.483 Y32.439 E112.73877
G1 X-31.413 Y32.509
M204 S5000
G0 F2520 X-30.917 Y32.439
M204 S3000
G1 F1260 X-36.128 Y27.228 E113.04515
G1 X-36.198 Y27.158
M204 S5000
G0 F2520 X-36.128 Y26.662
M204 S3000
G1 F1260 X-30.351 Y32.439 E113.38482
G1 X-30.281 Y32.509
M204 S5000
G0 F2520 X-29.786 Y32.439
M204 S3000
G1 F1260 X-36.128 Y26.097 E113.75771
G1 X-36.198 Y26.027
M204 S5000
G0 F2520 X-36.128 Y25.531
M204 S3000
G1 F1260 X-29.22 Y32.439 E114.16387
G1 X-29.15 Y32.509
M204 S5000
G0 F2520 X-28.654 Y32.439
M204 S3000
G1 F1260 X-36.128 Y24.965 E114.60331
G1 X-36.198 Y24.895
M204 S5000
G0 F2520 X-36.128 Y24.4
M204 S3000
G1 F1260 X-28.089 Y32.439 E115.07597
G1 X-28.019 Y32.509
M204 S5000
G0 F2520 X-27.523 Y32.439
M204 S3000
G1 F1260 X-36.128 Y23.834 E115.58191
G1 X-36.198 Y23.764
M204 S5000
G0 F2520 X-36.128 Y23.268
M204 S3000
G1 F1260 X-26.957 Y32.439 E116.12113
G1 X-26.887 Y32.509
M204 S5000
G0 F2520 X-26.392 Y32.439
M204 S3000
G1 F1260 X-36.128 Y22.703 E116.69357
G1 X-36.198 Y22.633
M204 S5000
G0 F2520 X-36.128 Y22.137
M204 S3000
G1 F1260 X-25.826 Y32.439 E117.29929
G1 X-25.756 Y32.509
M204 S5000
G0 F2520 X-25.26 Y32.439
M204 S3000
G1 F1260 X-36.128 Y21.571 E117.93829
G1 X-36.198 Y21.501
M204 S5000
G0 F2520 X-36.128 Y21.006
M204 S3000
G1 F1260 X-24.694 Y32.439 E118.61053
G1 X-24.624 Y32.509
M204 S5000
G0 F2520 X-24.129 Y32.439
M204 S3000
G1 F1260 X-36.128 Y20.44 E119.31603
G1 X-36.198 Y20.37
M204 S5000
G0 F2520 X-36.128 Y19.874
M204 S3000
G1 F1260 X-23.563 Y32.439 E120.0548
G1 X-23.493 Y32.509
M204 S5000
G0 F2520 X-22.997 Y32.439
M204 S3000
G1 F1260 X-36.128 Y19.308 E120.82686
G1 X-36.198 Y19.238
M204 S5000
G0 F2520 X-36.128 Y18.743
M204 S3000
G1 F1260 X-22.432 Y32.439 E121.63213
G1 X-22.362 Y32.509
M204 S5000
G0 F2520 X-21.866 Y32.439
M204 S3000
G1 F1260 X-36.128 Y18.177 E122.47068
G1 X-36.198 Y18.107
M204 S5000
G0 F2520 X-36.128 Y17.611
M204 S3000
G1 F1260 X-21.3 Y32.439 E123.34251
G1 X-21.23 Y32.509
M204 S5000
G0 F2520 X-20.735 Y32.439
M204 S3000
G1 F1260 X-36.128 Y17.046 E124.24756
G1 X-36.198 Y16.976
M204 S5000
G0 F2520 X-36.128 Y16.48
M204 S3000
G1 F1260 X-20.169 Y32.439 E125.18589
G1 X-20.099 Y32.509
M204 S5000
G0 F2520 X-19.603 Y32.439
M204 S3000
G1 F1260 X-36.128 Y15.914 E126.15749
G1 X-36.198 Y15.844
M204 S5000
G0 F2520 X-36.128 Y15.349
M204 S3000
G1 F1260 X-19.038 Y32.439 E127.16232
G1 X-18.968 Y32.509
M204 S5000
G0 F2520 X-18.472 Y32.439
M204 S3000
G1 F1260 X-36.128 Y14.783 E128.20043
G1 X-36.198 Y14.713
M204 S5000
G0 F2520 X-36.128 Y14.217
M204 S3000
G1 F1260 X-17.906 Y32.439 E129.27181
G1 X-17.836 Y32.509
M204 S5000
G0 F2520 X-17.341 Y32.439
M204 S3000
G1 F1260 X-36.128 Y13.652 E130.37641
G1 X-36.198 Y13.582
M204 S5000
G0 F2520 X-36.128 Y13.086
M204 S3000
G1 F1260 X-16.775 Y32.439 E131.51429
G1 X-16.705 Y32.509
M204 S5000
G0 F2520 X-16.209 Y32.439
M204 S3000
G1 F1260 X-36.128 Y12.52 E132.68546
G1 X-36.198 Y12.45
M204 S5000
G0 F2520 X-36.128 Y11.955
M204 S3000
G1 F1260 X-15.644 Y32.439 E133.88984
G1 X-15.574 Y32.509
M204 S5000
G0 F2520 X-15.078 Y32.439
M204 S3000
G1 F1260 X-36.128 Y11.389 E135.1275
G1 X-36.198 Y11.319
M204 S5000
G0 F2520 X-36.128 Y10.823
M204 S3000
G1 F1260 X-14.512 Y32.439 E136.39843
G1 X-14.442 Y32.509
M204 S5000
G0 F2520 X-13.946 Y32.439
M204 S3000
G1 F1260 X-36.128 Y10.257 E137.70265
G1 X-36.198 Y10.187
M204 S5000
G0 F2520 X-36.128 Y9.692
M204 S3000
G1 F1260 X-13.381 Y32.439 E139.04009
G1 X-13.311 Y32.509
M204 S5000
G0 F2520 X-12.815 Y32.439
M204 S3000
G1 F1260 X-36.128 Y9.126 E140.4108
G1 X-36.198 Y9.056
M204 S5000
G0 F2520 X-36.128 Y8.56
M204 S3000
G1 F1260 X-12.249 Y32.439 E141.8148
G1 X-12.179 Y32.509
M204 S5000
G0 F2520 X-11.684 Y32.439
M204 S3000
G1 F1260 X-36.128 Y7.995 E143.25201
G1 X-36.198 Y7.925
M204 S5000
G0 F2520 X-36.128 Y7.429
M204 S3000
G1 F1260 X-11.118 Y32.439 E144.7225
G1 X-11.048 Y32.509
M204 S5000
G0 F2520 X-10.552 Y32.439
M204 S3000
G1 F1260 X-36.128 Y6.863 E146.22627
G1 X-36.198 Y6.793
M204 S5000
G0 F2520 X-36.128 Y6.298
M204 S3000
G1 F1260 X-9.987 Y32.439 E147.76326
G1 X-9.917 Y32.509
M204 S5000
G0 F2520 X-9.421 Y32.439
M204 S3000
G1 F1260 X-36.128 Y5.732 E149.33353
G1 X-36.198 Y5.662
M204 S5000
G0 F2520 X-36.128 Y5.166
M204 S3000
G1 F1260 X-8.855 Y32.439 E150.93708
G1 X-8.785 Y32.509
M204 S5000
G0 F2520 X-8.29 Y32.439
M204 S3000
G1 F1260 X-36.128 Y4.601 E152.57385
G1 X-36.198 Y4.531
M204 S5000
G0 F2520 X-36.128 Y4.035
M204 S3000
G1 F1260 X-7.724 Y32.439 E154.24389
G1 X-7.654 Y32.509
M204 S5000
G0 F2520 X-7.158 Y32.439
M204 S3000
G1 F1260 X-36.128 Y3.469 E155.94722
G1 X-36.198 Y3.399
M204 S5000
G0 F2520 X-36.128 Y2.904
M204 S3000
G1 F1260 X-6.593 Y32.439 E157.68376
G1 X-6.523 Y32.509
M204 S5000
G0 F2520 X-6.027 Y32.439
M204 S3000
G1 F1260 X-36.128 Y2.338 E159.45359
G1 X-36.198 Y2.268
M204 S5000
G0 F2520 X-36.128 Y1.772
M204 S3000
G1 F1260 X-5.461 Y32.439 E161.25669
G1 X-5.391 Y32.509
M204 S5000
G0 F2520 X-4.896 Y32.439
M204 S3000
G1 F1260 X-36.128 Y1.207 E163.09301
G1 X-36.198 Y1.137
M204 S5000
G0 F2520 X-36.128 Y0.641
M204 S3000
G1 F1260 X-4.33 Y32.439 E164.96261
G1 X-4.26 Y32.509
M204 S5000
G0 F2520 X-3.764 Y32.439
M204 S3000
G1 F1260 X-36.128 Y0.075 E166.86549
G1 X-36.198 Y0.005
M204 S5000
G0 F2520 X-36.128 Y-.49
M204 S3000
G1 F1260 X-3.198 Y32.439 E168.80162
G1 X-3.128 Y32.509
M204 S5000
G0 F2520 X-2.633 Y32.439
M204 S3000
G1 F1260 X-36.128 Y-1.055 E170.77097
G1 X-36.198 Y-1.125
M204 S5000
G0 F2520 X-36.128 Y-1.621
M204 S3000
G1 F1260 X-2.067 Y32.439 E172.77359
G1 X-1.997 Y32.509
M204 S5000
G0 F2520 X-1.501 Y32.439
M204 S3000
G1 F1260 X-36.128 Y-2.187 E174.8095
G1 X-36.198 Y-2.257
M204 S5000
G0 F2520 X-36.128 Y-2.752
M204 S3000
G1 F1260 X-.936 Y32.439 E176.87862
G1 X-.866 Y32.509
M204 S5000
G0 F2520 X-.37 Y32.439
M204 S3000
G1 F1260 X-36.128 Y-3.318 E178.98103
G1 X-36.198 Y-3.388
M204 S5000
G0 F2520 X-36.128 Y-3.884
M204 S3000
G1 F1260 X0.195 Y32.439 E181.11668
G1 X0.265 Y32.509
M204 S5000
G0 F2520 X0.76 Y32.439
M204 S3000
G1 F1260 X-36.128 Y-4.449 E183.28555
G1 X-36.198 Y-4.519
M204 S5000
G0 F2520 X-36.128 Y-5.015
M204 S3000
G1 F1260 X1.326 Y32.439 E185.48771
G1 X1.396 Y32.509
M204 S5000
G0 F2520 X1.892 Y32.439
M204 S3000
G1 F1260 X-36.128 Y-5.581 E187.72314
G1 X-36.198 Y-5.651
M204 S5000
G0 F2520 X-36.128 Y-6.146
M204 S3000
G1 F1260 X2.457 Y32.439 E189.99179
G1 X2.527 Y32.509
M204 S5000
G0 F2520 X3.023 Y32.439
M204 S3000
G1 F1260 X-36.128 Y-6.712 E192.29372
G1 X-36.198 Y-6.782
M204 S5000
G0 F2520 X-36.128 Y-7.278
M204 S3000
G1 F1260 X3.589 Y32.439 E194.62892
G1 X3.659 Y32.509
M204 S5000
G0 F2520 X4.154 Y32.439
M204 S3000
G1 F1260 X-36.128 Y-7.843 E196.99735
G1 X-36.198 Y-7.913
M204 S5000
G0 F2520 X-36.128 Y-8.409
M204 S3000
G1 F1260 X4.72 Y32.439 E199.39906
G1 X4.79 Y32.509
M204 S5000
G0 F2520 X5.286 Y32.439
M204 S3000
G1 F1260 X-36.128 Y-8.975 E201.83404
G1 X-36.198 Y-9.045
M204 S5000
