;FLAVOR:Marlin
;TIME:1606
;Filament used: 1.82906m
;Layer height: 0.2
;Generated with Cura_SteamEngine 1.2.0
M104 S220
M109 S220
G90
G28
M132 X Y Z A
G1 Z100 F3300
G1 X-110.5 Y-74 F6000
M6 T0
M907 X100 Y100 Z60 A100
G1 Z0.6 F3300
G4 P2000
M108 T0

;LAYER_COUNT:45
;LAYER:0
M107
M204 S5000
G0 F2520 X-2.632 Y-12.974 Z0.25
G0 X-2.821 Y-12.938
M204 S3000
;TYPE:SKIRT
G1 F1260 X-2.632 Y-12.974 E0.008
G1 X0.54 Y-13.499 E0.14167
G1 X0.746 Y-13.528 E0.15032
G1 X3.807 Y-13.899 E0.27851
G1 X4.014 Y-13.92 E0.28716
G1 X7.046 Y-14.155 E0.4136
G1 X7.257 Y-14.166 E0.42238
G1 X10.577 Y-14.277 E0.56049
G1 X10.935 Y-14.276 E0.57537
G1 X20.187 Y-13.894 E0.96035
G1 X20.803 Y-13.828 E0.98611
G1 X21.405 Y-13.684 E1.01184
G1 X21.984 Y-13.464 E1.03759
G1 X22.53 Y-13.171 E1.06336
G1 X23.033 Y-12.81 E1.0891
G1 X23.485 Y-12.387 E1.11483
G1 X23.88 Y-11.909 E1.14061
G1 X24.209 Y-11.385 E1.16634
G1 X24.469 Y-10.822 E1.19212
G1 X24.653 Y-10.231 E1.21785
G1 X24.76 Y-9.621 E1.2436
G1 X24.789 Y-9.097 E1.26542
G1 X24.787 Y3.446 E1.7869
G1 X24.748 Y4.055 E1.81227
G1 X24.579 Y5.375 E1.8676
G1 X24.015 Y11.129 E2.10797
G1 X23.873 Y13.769 E2.21788
G1 X23.798 Y17.588 E2.37669
G1 X23.788 Y27.428 E2.78579
G1 X23.747 Y28.046 E2.81154
G1 X23.628 Y28.654 E2.8373
G1 X23.431 Y29.241 E2.86304
G1 X23.159 Y29.798 E2.88881
G1 X22.819 Y30.315 E2.91454
G1 X22.415 Y30.784 E2.94027
G1 X21.953 Y31.197 E2.96604
G1 X21.443 Y31.548 E2.99178
G1 X20.891 Y31.83 E3.01755
G1 X20.308 Y32.038 E3.04328
G1 X19.703 Y32.169 E3.06902
G1 X18.995 Y32.223 E3.09854
G1 X11.764 Y32.234 E3.39917
G1 X4.748 Y32.606 E3.69127
G1 X-.59 Y33.239 E3.91475
G1 X-5.934 Y34.183 E4.14037
G1 X-8.477 Y34.744 E4.24864
G1 X-11.115 Y35.404 E4.36169
G1 X-16.312 Y36.943 E4.58703
G1 X-19.425 Y38.012 E4.72388
G1 X-20.022 Y38.175 E4.74961
G1 X-20.636 Y38.259 E4.77537
G1 X-21.255 Y38.264 E4.80111
G1 X-21.87 Y38.19 E4.82686
G1 X-22.47 Y38.036 E4.85261
G1 X-23.045 Y37.807 E4.87834
G1 X-23.586 Y37.505 E4.9041
G1 X-24.084 Y37.137 E4.92985
G1 X-24.53 Y36.707 E4.9556
G1 X-24.917 Y36.223 E4.98137
G1 X-25.239 Y35.694 E5.00712
G1 X-25.489 Y35.128 E5.03284
G1 X-25.665 Y34.534 E5.0586
G1 X-25.763 Y33.922 E5.08437
G1 X-25.779 Y33.251 E5.11227
G1 X-25.635 Y30.123 E5.24246
G1 X-25.607 Y29.778 E5.25685
G1 X-25.054 Y25.117 E5.45199
G1 X-24.676 Y19.749 E5.67572
G1 X-24.603 Y14.322 E5.90136
G1 X-24.785 Y9.051 E6.12064
G1 X-24.784 Y8.687 E6.13577
G1 X-24.716 Y7.052 E6.20381
G1 X-24.685 Y6.67 E6.21974
G1 X-24.359 Y3.996 E6.33173
G1 X-24.247 Y3.4 E6.35695
G1 X-23.746 Y1.42 E6.44186
G1 X-23.549 Y0.812 E6.46843
G1 X-22.792 Y-1.078 E6.55308
G1 X-22.527 Y-1.633 E6.57865
G1 X-21.805 Y-2.926 E6.64022
G1 X-21.488 Y-3.42 E6.66462
G1 X-20.613 Y-4.616 E6.72623
G1 X-20.114 Y-5.195 E6.75801
G1 X-18.278 Y-7.011 E6.86537
G1 X-17.756 Y-7.458 E6.89394
G1 X-16.414 Y-8.45 E6.96333
G1 X-15.992 Y-8.729 E6.98436
G1 X-14.443 Y-9.639 E7.05905
G1 X-13.791 Y-9.958 E7.08923
G1 X-12.628 Y-10.422 E7.14128
G1 X-12.213 Y-10.566 E7.15955
G1 X-9.425 Y-11.392 E7.28044
G1 X-9.233 Y-11.445 E7.28872
G1 X-5.618 Y-12.355 E7.4437
G1 X-5.419 Y-12.4 E7.45219
G1 X-2.821 Y-12.938 E7.56249
M204 S5000
G0 F2520 X-2.566 Y-12.579
M204 S3000
G1 F1260 X0.606 Y-13.104 E7.69616
G1 X0.795 Y-13.131 E7.7041
G1 X3.856 Y-13.502 E7.83229
G1 X4.045 Y-13.521 E7.84019
G1 X7.077 Y-13.756 E7.96662
G1 X7.27 Y-13.767 E7.97466
G1 X10.59 Y-13.878 E8.11277
G1 X10.919 Y-13.876 E8.12644
G1 X20.171 Y-13.494 E8.51142
G1 X20.76 Y-13.43 E8.53606
G1 X21.335 Y-13.287 E8.56069
G1 X21.886 Y-13.068 E8.58534
G1 X22.403 Y-12.777 E8.61001
G1 X22.876 Y-12.419 E8.63467
G1 X23.296 Y-12 E8.65933
G1 X23.656 Y-11.529 E8.68398
G1 X23.95 Y-11.014 E8.70864
G1 X24.171 Y-10.464 E8.73328
G1 X24.317 Y-9.89 E8.7579
G1 X24.389 Y-9.097 E8.79101
G1 X24.387 Y3.446 E9.31249
G1 X24.351 Y4.004 E9.33573
G1 X24.183 Y5.318 E9.39081
G1 X23.617 Y11.092 E9.63201
G1 X23.473 Y13.769 E9.74347
G1 X23.398 Y17.58 E9.90194
G1 X23.388 Y27.427 E10.31133
G1 X23.347 Y28.019 E10.33601
G1 X23.228 Y28.6 E10.36066
G1 X23.031 Y29.159 E10.3853
G1 X22.761 Y29.687 E10.40996
G1 X22.422 Y30.174 E10.43463
G1 X22.021 Y30.61 E10.45926
G1 X21.565 Y30.989 E10.48391
G1 X21.062 Y31.303 E10.50856
G1 X20.522 Y31.547 E10.5332
G1 X19.953 Y31.716 E10.55787
G1 X19.367 Y31.807 E10.58253
G1 X18.995 Y31.823 E10.59801
G1 X11.762 Y31.834 E10.89872
G1 X4.695 Y32.209 E11.19295
G1 X-.639 Y32.841 E11.41626
G1 X-5.994 Y33.787 E11.64234
G1 X-8.588 Y34.36 E11.75279
G1 X-11.213 Y35.016 E11.86528
G1 X-16.457 Y36.569 E12.09266
G1 X-19.555 Y37.633 E12.22885
G1 X-20.127 Y37.788 E12.25348
G1 X-20.715 Y37.864 E12.27813
G1 X-21.308 Y37.86 E12.30279
G1 X-21.895 Y37.777 E12.32744
G1 X-22.466 Y37.615 E12.35211
G1 X-23.009 Y37.378 E12.37674
G1 X-23.516 Y37.07 E12.40141
G1 X-23.977 Y36.697 E12.42606
G1 X-24.384 Y36.265 E12.45074
G1 X-24.728 Y35.783 E12.47536
G1 X-25.005 Y35.259 E12.5
G1 X-25.209 Y34.702 E12.52466
G1 X-25.336 Y34.122 E12.54935
G1 X-25.379 Y33.27 E12.58481
G1 X-25.235 Y30.142 E12.715
G1 X-25.209 Y29.826 E12.72818
G1 X-24.657 Y25.174 E12.92294
G1 X-24.276 Y19.765 E13.14838
G1 X-24.203 Y14.314 E13.37503
G1 X-24.385 Y9.038 E13.59451
G1 X-24.384 Y8.703 E13.60844
G1 X-24.316 Y7.068 E13.67647
G1 X-24.288 Y6.719 E13.69103
G1 X-23.962 Y4.045 E13.80302
G1 X-23.86 Y3.498 E13.82616
G1 X-23.359 Y1.518 E13.91107
G1 X-23.178 Y0.961 E13.93542
G1 X-22.421 Y-.929 E14.02006
G1 X-22.178 Y-1.438 E14.04351
G1 X-21.456 Y-2.731 E14.10508
G1 X-21.165 Y-3.184 E14.12747
G1 X-20.29 Y-4.38 E14.18908
G1 X-19.833 Y-4.91 E14.21817
G1 X-17.997 Y-6.726 E14.32554
G1 X-17.518 Y-7.136 E14.35175
G1 X-16.176 Y-8.128 E14.42113
G1 X-15.79 Y-8.384 E14.44039
G1 X-14.241 Y-9.294 E14.51508
G1 X-13.642 Y-9.587 E14.5428
G1 X-12.479 Y-10.051 E14.59486
G1 X-12.099 Y-10.183 E14.61159
G1 X-9.311 Y-11.009 E14.73248
G1 X-9.135 Y-11.057 E14.74006
G1 X-5.52 Y-11.967 E14.89505
G1 X-5.338 Y-12.009 E14.90281
G1 X-2.74 Y-12.547 E15.01311
G1 X-2.566 Y-12.579 E15.02047
M204 S5000
G0 F2520 X-2.501 Y-12.184
M204 S3000
G1 F1260 X0.671 Y-12.709 E15.15414
G1 X0.843 Y-12.734 E15.16137
G1 X3.904 Y-13.105 E15.28956
G1 X4.076 Y-13.122 E15.29675
G1 X7.108 Y-13.357 E15.42318
G1 X7.283 Y-13.367 E15.43047
G1 X10.603 Y-13.478 E15.56857
G1 X10.902 Y-13.477 E15.581
G1 X20.154 Y-13.095 E15.96599
G1 X20.716 Y-13.031 E15.9895
G1 X21.263 Y-12.89 E16.01299
G1 X21.785 Y-12.672 E16.03651
G1 X22.271 Y-12.383 E16.06001
G1 X22.711 Y-12.029 E16.08349
G1 X23.097 Y-11.616 E16.10699
G1 X23.421 Y-11.152 E16.13052
G1 X23.676 Y-10.648 E16.15401
G1 X23.858 Y-10.113 E16.1775
G1 X23.963 Y-9.557 E16.20103
G1 X23.989 Y-9.097 E16.22018
G1 X23.987 Y3.446 E16.74166
G1 X23.955 Y3.953 E16.76278
G1 X23.783 Y5.294 E16.81899
G1 X23.217 Y11.077 E17.06057
G1 X23.074 Y13.74 E17.17144
G1 X22.998 Y17.546 E17.32971
G1 X22.988 Y27.427 E17.74051
G1 X22.947 Y27.991 E17.76402
G1 X22.828 Y28.543 E17.7875
G1 X22.632 Y29.074 E17.81103
G1 X22.362 Y29.571 E17.83455
G1 X22.026 Y30.025 E17.85803
G1 X21.629 Y30.427 E17.88152
G1 X21.179 Y30.77 E17.90504
G1 X20.685 Y31.045 E17.92855
G1 X20.158 Y31.248 E17.95203
G1 X19.607 Y31.375 E17.97553
G1 X18.994 Y31.423 E18.0011
G1 X11.741 Y31.434 E18.30264
G1 X4.673 Y31.809 E18.59691
G1 X-.701 Y32.446 E18.8219
G1 X-6.08 Y33.396 E19.04899
G1 X-8.666 Y33.967 E19.1591
G1 X-11.326 Y34.632 E19.27309
G1 X-16.567 Y36.184 E19.50034
G1 X-19.685 Y37.255 E19.6374
G1 X-20.231 Y37.4 E19.66089
G1 X-20.792 Y37.467 E19.68438
G1 X-21.358 Y37.455 E19.70792
G1 X-21.915 Y37.362 E19.73139
G1 X-22.454 Y37.192 E19.75489
G1 X-22.964 Y36.947 E19.77841
G1 X-23.434 Y36.634 E19.80189
G1 X-23.856 Y36.257 E19.82542
G1 X-24.219 Y35.824 E19.84891
G1 X-24.519 Y35.344 E19.87244
G1 X-24.747 Y34.827 E19.89593
G1 X-24.901 Y34.283 E19.91944
G1 X-24.976 Y33.723 E19.94293
G1 X-24.98 Y33.288 E19.96102
G1 X-24.836 Y30.16 E20.0912
G1 X-24.812 Y29.873 E20.10317
G1 X-24.258 Y25.207 E20.29853
G1 X-23.877 Y19.781 E20.52467
G1 X-23.803 Y14.326 E20.75148
G1 X-23.986 Y9.024 E20.97204
G1 X-23.985 Y8.72 E20.98468
G1 X-23.917 Y7.085 E21.05272
G1 X-23.891 Y6.767 E21.06598
G1 X-23.565 Y4.093 E21.17798
G1 X-23.472 Y3.596 E21.199
G1 X-22.971 Y1.616 E21.28391
G1 X-22.806 Y1.11 E21.30604
G1 X-22.049 Y-.78 E21.39069
G1 X-21.828 Y-1.243 E21.41202
G1 X-21.106 Y-2.536 E21.47358
G1 X-20.842 Y-2.948 E21.49393
G1 X-19.967 Y-4.144 E21.55554
G1 X-19.552 Y-4.626 E21.58198
G1 X-17.716 Y-6.442 E21.68935
G1 X-17.281 Y-6.815 E21.71317
G1 X-15.939 Y-7.807 E21.78255
G1 X-15.587 Y-8.039 E21.80008
G1 X-14.038 Y-8.949 E21.87477
G1 X-13.494 Y-9.215 E21.89995
G1 X-12.331 Y-9.679 E21.952
G1 X-11.985 Y-9.799 E21.96723
G1 X-9.197 Y-10.625 E22.08812
G1 X-9.037 Y-10.669 E22.09502
G1 X-5.422 Y-11.579 E22.25
G1 X-5.257 Y-11.617 E22.25704
G1 X-2.659 Y-12.155 E22.36735
G1 X-2.501 Y-12.184 E22.37403
M204 S5000
G0 F2520 X-2.578 Y-11.763
M204 S3000
G1 F1260 X-2.436 Y-11.79 E22.38003
G1 X0.736 Y-12.315 E22.51371
G1 X0.891 Y-12.337 E22.52021
G1 X3.952 Y-12.708 E22.64841
G1 X4.107 Y-12.723 E22.65488
G1 X7.139 Y-12.958 E22.78132
G1 X7.297 Y-12.967 E22.78789
G1 X10.617 Y-13.078 E22.926
G1 X10.886 Y-13.077 E22.93719
G1 X20.138 Y-12.695 E23.32217
G1 X20.67 Y-12.633 E23.34443
G1 X21.188 Y-12.493 E23.36674
G1 X21.679 Y-12.277 E23.38904
G1 X22.132 Y-11.991 E23.41132
G1 X22.538 Y-11.64 E23.43363
G1 X22.887 Y-11.233 E23.45592
G1 X23.173 Y-10.779 E23.47823
G1 X23.387 Y-10.287 E23.50053
G1 X23.526 Y-9.769 E23.52283
G1 X23.589 Y-9.097 E23.55089
G1 X23.587 Y3.446 E24.07237
G1 X23.558 Y3.903 E24.09141
G1 X23.386 Y5.242 E24.14754
G1 X22.819 Y11.04 E24.38974
G1 X22.674 Y13.739 E24.50211
G1 X22.598 Y17.546 E24.66042
G1 X22.588 Y27.427 E25.07122
G1 X22.548 Y27.961 E25.09349
G1 X22.428 Y28.484 E25.1158
G1 X22.232 Y28.983 E25.13809
G1 X21.964 Y29.448 E25.1604
G1 X21.631 Y29.868 E25.18268
G1 X21.238 Y30.233 E25.20498
G1 X20.796 Y30.536 E25.22726
G1 X20.313 Y30.77 E25.24957
G1 X19.801 Y30.93 E25.27188
G1 X19.271 Y31.012 E25.29417
G1 X18.993 Y31.023 E25.30574
G1 X11.738 Y31.034 E25.60737
G1 X4.635 Y31.411 E25.90309
G1 X-.766 Y32.051 E26.12921
G1 X-6.162 Y33.005 E26.35703
G1 X-8.743 Y33.574 E26.46691
G1 X-11.423 Y34.244 E26.58176
G1 X-16.691 Y35.804 E26.81018
G1 X-19.815 Y36.877 E26.94751
G1 X-20.333 Y37.013 E26.96978
G1 X-20.867 Y37.07 E26.9921
G1 X-21.402 Y37.048 E27.01436
G1 X-21.929 Y36.946 E27.03668
G1 X-22.435 Y36.767 E27.059
G1 X-22.908 Y36.515 E27.08128
G1 X-23.339 Y36.195 E27.1036
G1 X-23.717 Y35.815 E27.12588
G1 X-24.035 Y35.383 E27.14818
G1 X-24.285 Y34.909 E27.17046
G1 X-24.462 Y34.403 E27.19275
G1 X-24.561 Y33.876 E27.21504
G1 X-24.58 Y33.306 E27.23875
G1 X-24.436 Y30.178 E27.36894
G1 X-24.415 Y29.92 E27.3797
G1 X-23.86 Y25.24 E27.57563
G1 X-23.477 Y19.797 E27.80249
G1 X-23.403 Y14.318 E28.0303
G1 X-23.586 Y9.01 E28.25111
G1 X-23.585 Y8.736 E28.2625
G1 X-23.517 Y7.101 E28.33054
G1 X-23.494 Y6.815 E28.34247
G1 X-23.168 Y4.141 E28.45446
G1 X-23.084 Y3.694 E28.47337
G1 X-22.583 Y1.714 E28.55828
G1 X-22.435 Y1.258 E28.57821
G1 X-21.678 Y-.632 E28.66286
G1 X-21.479 Y-1.048 E28.68203
G1 X-20.757 Y-2.341 E28.7436
G1 X-20.519 Y-2.712 E28.76193
G1 X-19.644 Y-3.908 E28.82354
G1 X-19.271 Y-4.341 E28.8473
G1 X-17.435 Y-6.157 E28.95466
G1 X-17.043 Y-6.493 E28.97613
G1 X-15.701 Y-7.485 E29.04551
G1 X-15.385 Y-7.694 E29.06126
G1 X-13.836 Y-8.604 E29.13595
G1 X-13.346 Y-8.844 E29.15864
G1 X-12.183 Y-9.308 E29.21069
G1 X-11.872 Y-9.416 E29.22438
G1 X-9.084 Y-10.242 E29.34527
G1 X-8.94 Y-10.281 E29.35148
G1 X-5.325 Y-11.191 E29.50646
G1 X-5.176 Y-11.225 E29.51281
G1 X-2.578 Y-11.763 E29.62312
M204 S5000
G0 F2520 X-2.371 Y-11.395
M204 S3000
G1 F1260 X0.801 Y-11.92 E29.75679
G1 X0.939 Y-11.94 E29.76258
G1 X4 Y-12.311 E29.89078
G1 X4.138 Y-12.324 E29.89654
G1 X7.17 Y-12.559 E30.02297
G1 X7.31 Y-12.567 E30.0288
G1 X10.63 Y-12.678 E30.16691
G1 X10.869 Y-12.677 E30.17685
G1 X20.121 Y-12.295 E30.56183
G1 X20.623 Y-12.235 E30.58285
G1 X21.109 Y-12.096 E30.60386
G1 X21.567 Y-11.882 E30.62488
G1 X21.986 Y-11.598 E30.64592
G1 X22.355 Y-11.253 E30.66693
G1 X22.665 Y-10.853 E30.68797
G1 X22.908 Y-10.41 E30.70897
G1 X23.078 Y-9.934 E30.72999
G1 X23.171 Y-9.437 E30.75101
G1 X23.189 Y-9.097 E30.76516
G1 X23.187 Y3.446 E31.28664
G1 X23.161 Y3.852 E31.30356
G1 X22.99 Y5.185 E31.35943
G1 X22.418 Y11.024 E31.60335
G1 X22.274 Y13.711 E31.71522
G1 X22.198 Y17.545 E31.87465
G1 X22.188 Y27.426 E32.28546
G1 X22.148 Y27.93 E32.30648
G1 X22.028 Y28.421 E32.32749
G1 X21.833 Y28.888 E32.34853
G1 X21.567 Y29.318 E32.36955
G1 X21.236 Y29.7 E32.39057
G1 X20.85 Y30.026 E32.41157
G1 X20.416 Y30.287 E32.43263
G1 X19.948 Y30.476 E32.45361
G1 X19.455 Y30.589 E32.47464
G1 X18.993 Y30.623 E32.4939
G1 X11.736 Y30.634 E32.79561
G1 X4.598 Y31.013 E33.09279
G1 X-.828 Y31.656 E33.31996
G1 X-6.23 Y32.61 E33.54802
G1 X-8.881 Y33.195 E33.66089
G1 X-11.515 Y33.854 E33.77377
G1 X-16.822 Y35.425 E34.00388
G1 X-19.945 Y36.498 E34.14117
G1 X-20.434 Y36.624 E34.16216
G1 X-20.938 Y36.672 E34.18321
G1 X-21.442 Y36.639 E34.20421
G1 X-21.935 Y36.527 E34.22523
G1 X-22.404 Y36.339 E34.24623
G1 X-22.838 Y36.08 E34.26725
G1 X-23.226 Y35.755 E34.28829
G1 X-23.558 Y35.374 E34.3093
G1 X-23.825 Y34.945 E34.33031
G1 X-24.021 Y34.479 E34.35133
G1 X-24.142 Y33.988 E34.37235
G1 X-24.181 Y33.325 E34.39996
G1 X-24.037 Y30.197 E34.53015
G1 X-24.018 Y29.967 E34.53974
G1 X-23.461 Y25.273 E34.73626
G1 X-23.077 Y19.813 E34.96382
G1 X-23.003 Y14.309 E35.19268
G1 X-23.186 Y8.996 E35.4137
G1 X-23.185 Y8.753 E35.4238
G1 X-23.117 Y7.118 E35.49183
G1 X-23.096 Y6.864 E35.50243
G1 X-22.77 Y4.19 E35.61442
G1 X-22.696 Y3.792 E35.63125
G1 X-22.195 Y1.812 E35.71617
G1 X-22.064 Y1.407 E35.73386
G1 X-21.307 Y-.483 E35.81851
G1 X-21.13 Y-.853 E35.83556
G1 X-20.408 Y-2.146 E35.89713
G1 X-20.197 Y-2.475 E35.91338
G1 X-19.322 Y-3.671 E35.97499
G1 X-18.989 Y-4.057 E35.99619
G1 X-17.153 Y-5.873 E36.10355
G1 X-16.805 Y-6.171 E36.1226
G1 X-15.463 Y-7.163 E36.19198
G1 X-15.182 Y-7.349 E36.20599
G1 X-13.633 Y-8.259 E36.28068
G1 X-13.198 Y-8.472 E36.30082
G1 X-12.035 Y-8.936 E36.35288
G1 X-11.758 Y-9.032 E36.36506
G1 X-8.97 Y-9.858 E36.48596
G1 X-8.842 Y-9.893 E36.49147
G1 X-5.227 Y-10.803 E36.64646
G1 X-5.095 Y-10.834 E36.65209
G1 X-2.497 Y-11.372 E36.7624
G1 X-2.371 Y-11.395 E36.76772
M204 S5000
G1 F1500 E34.76772
G0 F2520 X-1.91 Y-8.902
G0 X-1.68 Y-7.659
G0 X-2.172 Y-7.161
M204 S3000
;TYPE:WALL-INNER
G1 F1500 E36.85087
G1 F1260 X-.65 Y-7.443 E36.91523
G1 X0.904 Y-7.695 E36.98068
G1 X2.448 Y-7.91 E37.04549
G1 X3.969 Y-8.089 E37.10916
G1 X5.469 Y-8.233 E37.17181
G1 X7.024 Y-8.347 E37.23663
G1 X8.592 Y-8.429 E37.30191
G1 X10.223 Y-8.476 E37.36975
G1 X11.734 Y-8.488 E37.43257
G1 X18.998 Y-8.133 E37.73494
G1 X18.998 Y2.217 E38.16524
G1 X18.998 Y2.218 E38.16528
G1 X18.998 Y2.419 E38.17364
G1 X18.797 Y2.418 E38.17904
G1 X18.796 Y2.417 E38.1791
G1 X17.542 Y2.398 E38.23124
G1 X17.542 Y-3.554 E38.4787
G1 X14.444 Y-3.554 E38.6075
G1 X14.444 Y2.401 E38.85508
G1 X12.701 Y2.434 E38.92756
G1 X0.737 Y1.445 E39.42666
G1 X-.297 Y1.306 E39.47003
G1 X-1.399 Y1.216 E39.516
G1 X-2.502 Y1.181 E39.56188
G1 X-3.604 Y1.202 E39.60771
G1 X-4.706 Y1.281 E39.65364
G1 X-5.808 Y1.414 E39.69979
G1 X-6.91 Y1.603 E39.74627
G1 X-8.008 Y1.85 E39.79306
G1 X-9.105 Y2.151 E39.84036
G1 X-10.2 Y2.506 E39.88821
G1 X-11.294 Y2.919 E39.93683
G1 X-12.319 Y3.355 E39.98314
G1 X-13.325 Y3.831 E40.02941
G1 X-14.295 Y4.334 E40.07484
G1 X-15.221 Y4.856 E40.11903
G1 X-16.145 Y5.416 E40.16395
G1 X-17.065 Y6.016 E40.20962
G1 X-17.985 Y6.655 E40.25619
G1 X-18.655 Y7.15 E40.29082
G1 X-18.667 Y7.158 E40.29142
G1 X-18.932 Y7.354 E40.30512
G1 X-18.897 Y6.848 E40.31688
G1 X-18.896 Y6.834 E40.31746
G1 X-18.802 Y5.951 E40.35438
G1 X-18.668 Y5.041 E40.39262
G1 X-18.51 Y4.238 E40.42665
G1 X-18.3 Y3.398 E40.46264
G1 X-18.023 Y2.519 E40.50096
G1 X-17.711 Y1.712 E40.53693
G1 X-17.346 Y0.935 E40.57262
G1 X-16.928 Y0.19 E40.60814
G1 X-16.458 Y-.526 E40.64375
G1 X-15.969 Y-1.159 E40.677
G1 X-15.395 Y-1.8 E40.71277
G1 X-14.778 Y-2.401 E40.74858
G1 X-14.081 Y-2.993 E40.7866
G1 X-13.376 Y-3.518 E40.82315
G1 X-12.679 Y-3.978 E40.85787
G1 X-11.88 Y-4.444 E40.89632
G1 X-11.151 Y-4.821 E40.93045
G1 X-9.799 Y-5.248 E40.98939
G1 X-8.293 Y-5.689 E41.05463
G1 X-6.75 Y-6.111 E41.12114
G1 X-5.22 Y-6.496 E41.18673
G1 X-3.716 Y-6.84 E41.25088
