;FLAVOR:Marlin
;TIME:23438
;Filament used: 29.4506m
;Layer height: 0.2
;Generated with Cura_SteamEngine 1.2.0
M104 S220
M109 S220
G90
G28
M132 X Y Z A
G1 Z100 F3300
G1 X-110.5 Y-74 F6000
M6 T0
M907 X100 Y100 Z60 A100
G1 Z0.6 F3300
G4 P2000
M108 T0

;LAYER_COUNT:140
;LAYER:0
M107
M204 S5000
G0 F2520 X73.969 Y-21.689 Z0.25
M204 S3000
;TYPE:SKIRT
G1 F1260 X74.673 Y-19.126 E0.1105
G1 X76.332 Y-13.969 E0.33573
G1 X78.266 Y-8.949 E0.55939
G1 X80.5 Y-4.004 E0.78498
G1 X81.676 Y-1.669 E0.89368
G1 X85.263 Y4.64 E1.19541
G1 X85.533 Y5.197 E1.22114
G1 X85.73 Y5.784 E1.24688
G1 X85.85 Y6.392 E1.27265
G1 X85.89 Y7.012 E1.29848
G1 X85.89 Y57.601 E3.40173
G1 X85.85 Y58.219 E3.42747
G1 X85.731 Y58.827 E3.45323
G1 X85.534 Y59.414 E3.47897
G1 X85.264 Y59.971 E3.50471
G1 X84.924 Y60.489 E3.53047
G1 X84.52 Y60.959 E3.55624
G1 X84.059 Y61.372 E3.58197
G1 X83.549 Y61.723 E3.60771
G1 X82.998 Y62.006 E3.63346
G1 X82.415 Y62.215 E3.65921
G1 X81.809 Y62.347 E3.68499
G1 X81.09 Y62.401 E3.71497
G1 X-71.091 Y62.401 E10.04192
G1 X-71.709 Y62.361 E10.06767
G1 X-72.317 Y62.242 E10.09343
G1 X-72.904 Y62.045 E10.11917
G1 X-73.461 Y61.775 E10.1449
G1 X-73.979 Y61.435 E10.17066
G1 X-74.449 Y61.031 E10.19643
G1 X-74.862 Y60.57 E10.22216
G1 X-75.213 Y60.06 E10.2479
G1 X-75.496 Y59.509 E10.27366
G1 X-75.705 Y58.926 E10.29941
G1 X-75.837 Y58.32 E10.32519
G1 X-75.889 Y57.726 E10.34998
G1 X-76.054 Y51.388 E10.61357
G1 X-76.511 Y46.015 E10.83776
G1 X-77.27 Y40.684 E11.06164
G1 X-78.332 Y35.388 E11.2862
G1 X-78.969 Y32.792 E11.39733
G1 X-79.673 Y30.229 E11.50784
G1 X-81.332 Y25.072 E11.73306
G1 X-83.266 Y20.052 E11.95672
G1 X-85.5 Y15.107 E12.18232
G1 X-86.676 Y12.772 E12.29101
G1 X-90.262 Y6.465 E12.59265
G1 X-90.532 Y5.908 E12.61838
G1 X-90.729 Y5.321 E12.64412
G1 X-90.849 Y4.713 E12.66989
G1 X-90.889 Y4.083 E12.69613
G1 X-90.831 Y-22.565 E13.80403
G1 X-90.898 Y-25.198 E13.91353
G1 X-90.9 Y-25.322 E13.91869
G1 X-90.89 Y-46.5 E14.79917
G1 X-90.85 Y-47.118 E14.82492
G1 X-90.73 Y-47.726 E14.85068
G1 X-90.533 Y-48.313 E14.87642
G1 X-90.263 Y-48.87 E14.90216
G1 X-89.923 Y-49.388 E14.92792
G1 X-89.519 Y-49.857 E14.95366
G1 X-89.057 Y-50.271 E14.97945
G1 X-88.547 Y-50.622 E15.00519
G1 X-87.996 Y-50.904 E15.03092
G1 X-87.412 Y-51.112 E15.05669
G1 X-86.807 Y-51.244 E15.08244
G1 X-86.09 Y-51.298 E15.11233
G1 X66.091 Y-51.297 E21.43928
G1 X66.709 Y-51.257 E21.46503
G1 X67.317 Y-51.138 E21.49079
G1 X67.904 Y-50.941 E21.51653
G1 X68.461 Y-50.671 E21.54226
G1 X68.979 Y-50.331 E21.56803
G1 X69.449 Y-49.927 E21.59379
G1 X69.862 Y-49.466 E21.61953
G1 X70.213 Y-48.956 E21.64526
G1 X70.496 Y-48.405 E21.67102
G1 X70.705 Y-47.822 E21.69677
G1 X70.837 Y-47.216 E21.72255
G1 X70.889 Y-46.622 E21.74734
G1 X71.054 Y-40.285 E22.01089
G1 X71.511 Y-34.912 E22.23508
G1 X72.27 Y-29.581 E22.45896
G1 X73.332 Y-24.285 E22.68352
G1 X73.969 Y-21.689 E22.79465
M204 S5000
G0 F2520 X73.57 Y-21.635
M204 S3000
G1 F1260 X74.291 Y-19.01 E22.90783
G1 X75.958 Y-13.829 E23.1341
G1 X77.896 Y-8.798 E23.35825
G1 X80.141 Y-3.828 E23.58498
G1 X81.324 Y-1.479 E23.69433
G1 X84.915 Y4.837 E23.99639
G1 X85.173 Y5.371 E24.02105
G1 X85.356 Y5.935 E24.0457
G1 X85.462 Y6.519 E24.07038
G1 X85.49 Y7.012 E24.09091
G1 X85.49 Y57.601 E26.19415
G1 X85.45 Y58.193 E26.21882
G1 X85.331 Y58.773 E26.24344
G1 X85.135 Y59.333 E26.2681
G1 X84.865 Y59.861 E26.29276
G1 X84.527 Y60.348 E26.3174
G1 X84.126 Y60.785 E26.34206
G1 X83.671 Y61.165 E26.36671
G1 X83.168 Y61.479 E26.39136
G1 X82.628 Y61.724 E26.41602
G1 X82.059 Y61.893 E26.44069
G1 X81.474 Y61.984 E26.46531
G1 X81.09 Y62.001 E26.48129
G1 X-71.091 Y62.001 E32.80824
G1 X-71.683 Y61.961 E32.83291
G1 X-72.263 Y61.842 E32.85752
G1 X-72.823 Y61.646 E32.88219
G1 X-73.351 Y61.376 E32.90684
G1 X-73.838 Y61.038 E32.93149
G1 X-74.275 Y60.637 E32.95615
G1 X-74.655 Y60.182 E32.9808
G1 X-74.969 Y59.679 E33.00545
G1 X-75.214 Y59.139 E33.0301
G1 X-75.383 Y58.57 E33.05478
G1 X-75.49 Y57.716 E33.09056
G1 X-75.656 Y51.345 E33.35553
G1 X-76.112 Y45.977 E33.57951
G1 X-76.876 Y40.617 E33.8046
G1 X-77.946 Y35.283 E34.03078
G1 X-78.57 Y32.738 E34.13972
G1 X-79.291 Y30.113 E34.2529
G1 X-80.958 Y24.932 E34.47918
G1 X-82.896 Y19.901 E34.70332
G1 X-85.141 Y14.931 E34.93005
G1 X-86.324 Y12.582 E35.0394
G1 X-89.914 Y6.268 E35.34137
G1 X-90.172 Y5.734 E35.36603
G1 X-90.355 Y5.17 E35.39068
G1 X-90.461 Y4.586 E35.41536
G1 X-90.489 Y4.083 E35.4363
G1 X-90.431 Y-22.538 E36.54308
G1 X-90.499 Y-25.208 E36.65412
G1 X-90.5 Y-25.322 E36.65886
G1 X-90.49 Y-46.5 E37.53934
G1 X-90.45 Y-47.092 E37.564
G1 X-90.33 Y-47.672 E37.58863
G1 X-90.134 Y-48.232 E37.6133
G1 X-89.864 Y-48.76 E37.63795
G1 X-89.526 Y-49.247 E37.6626
G1 X-89.125 Y-49.684 E37.68726
G1 X-88.669 Y-50.063 E37.71191
G1 X-88.166 Y-50.377 E37.73656
G1 X-87.626 Y-50.621 E37.7612
G1 X-87.057 Y-50.79 E37.78587
G1 X-86.471 Y-50.881 E37.81053
G1 X-86.09 Y-50.898 E37.82638
G1 X66.091 Y-50.897 E44.15333
G1 X66.683 Y-50.857 E44.178
G1 X67.264 Y-50.738 E44.20266
G1 X67.823 Y-50.542 E44.22729
G1 X68.351 Y-50.272 E44.25194
G1 X68.838 Y-49.934 E44.27659
G1 X69.275 Y-49.533 E44.30125
G1 X69.655 Y-49.078 E44.32589
G1 X69.969 Y-48.575 E44.35055
G1 X70.214 Y-48.035 E44.3752
G1 X70.383 Y-47.466 E44.39988
G1 X70.49 Y-46.612 E44.43566
G1 X70.656 Y-40.242 E44.70058
G1 X71.112 Y-34.874 E44.92456
G1 X71.876 Y-29.514 E45.14966
G1 X72.946 Y-24.18 E45.37584
G1 X73.57 Y-21.635 E45.48478
M204 S5000
G0 F2520 X73.19 Y-21.506
M204 S3000
G1 F1260 X73.906 Y-18.901 E45.5971
G1 X75.577 Y-13.706 E45.82398
G1 X77.534 Y-8.625 E46.05035
G1 X79.772 Y-3.672 E46.27632
G1 X80.977 Y-1.28 E46.38767
G1 X84.567 Y5.035 E46.68968
G1 X84.811 Y5.545 E46.71319
G1 X84.981 Y6.084 E46.73668
G1 X85.073 Y6.642 E46.76019
G1 X85.09 Y7.012 E46.77559
G1 X85.09 Y57.601 E48.87884
G1 X85.05 Y58.165 E48.90235
G1 X84.931 Y58.718 E48.92586
G1 X84.735 Y59.248 E48.94936
G1 X84.467 Y59.745 E48.97283
G1 X84.131 Y60.2 E48.99635
G1 X83.734 Y60.603 E49.01987
G1 X83.284 Y60.945 E49.04337
G1 X82.791 Y61.221 E49.06686
G1 X82.263 Y61.425 E49.09039
G1 X81.713 Y61.552 E49.11386
G1 X81.09 Y61.601 E49.13984
G1 X-71.091 Y61.601 E55.46679
G1 X-71.655 Y61.561 E55.4903
G1 X-72.208 Y61.442 E55.51381
G1 X-72.738 Y61.246 E55.53731
G1 X-73.235 Y60.978 E55.56078
G1 X-73.69 Y60.642 E55.5843
G1 X-74.093 Y60.245 E55.60782
G1 X-74.435 Y59.795 E55.63132
G1 X-74.711 Y59.302 E55.65481
G1 X-74.915 Y58.774 E55.67834
G1 X-75.042 Y58.224 E55.70181
G1 X-75.09 Y57.705 E55.72348
G1 X-75.256 Y51.334 E55.98844
G1 X-75.716 Y45.92 E56.21434
G1 X-76.481 Y40.553 E56.43973
G1 X-77.553 Y35.206 E56.66646
G1 X-78.19 Y32.609 E56.77763
G1 X-78.906 Y30.004 E56.88995
G1 X-80.577 Y24.809 E57.11683
G1 X-82.534 Y19.728 E57.3432
G1 X-84.772 Y14.775 E57.56917
G1 X-85.977 Y12.383 E57.68052
G1 X-89.566 Y6.07 E57.98244
G1 X-89.81 Y5.56 E58.00594
G1 X-89.98 Y5.021 E58.02944
G1 X-90.072 Y4.463 E58.05295
G1 X-90.089 Y4.084 E58.06872
G1 X-90.031 Y-22.547 E59.17591
G1 X-90.099 Y-25.218 E59.287
G1 X-90.1 Y-25.322 E59.29132
G1 X-90.09 Y-46.5 E60.1718
G1 X-90.05 Y-47.064 E60.19531
G1 X-89.93 Y-47.616 E60.21879
G1 X-89.734 Y-48.147 E60.24232
G1 X-89.466 Y-48.644 E60.2658
G1 X-89.129 Y-49.098 E60.28931
G1 X-88.732 Y-49.501 E60.31283
G1 X-88.283 Y-49.843 E60.33629
G1 X-87.789 Y-50.119 E60.35982
G1 X-87.262 Y-50.323 E60.38331
G1 X-86.711 Y-50.45 E60.40682
G1 X-86.09 Y-50.498 E60.43272
G1 X66.091 Y-50.497 E66.75967
G1 X66.655 Y-50.457 E66.78317
G1 X67.208 Y-50.338 E66.80669
G1 X67.738 Y-50.142 E66.83018
G1 X68.235 Y-49.874 E66.85366
G1 X68.69 Y-49.538 E66.87718
G1 X69.093 Y-49.141 E66.9007
G1 X69.435 Y-48.691 E66.92419
G1 X69.711 Y-48.198 E66.94768
G1 X69.915 Y-47.67 E66.97122
G1 X70.042 Y-47.12 E66.99469
G1 X70.09 Y-46.601 E67.01635
G1 X70.256 Y-40.231 E67.28128
G1 X70.716 Y-34.817 E67.50718
G1 X71.481 Y-29.45 E67.73257
G1 X72.553 Y-24.103 E67.95929
G1 X73.19 Y-21.506 E68.07046
M204 S5000
G0 F2520 X72.802 Y-21.41
M204 S3000
G1 F1260 X73.523 Y-18.785 E68.18364
G1 X75.202 Y-13.566 E68.41157
G1 X77.157 Y-8.489 E68.63776
G1 X79.422 Y-3.477 E68.86642
G1 X80.613 Y-1.112 E68.97651
G1 X84.22 Y5.233 E69.27995
G1 X84.449 Y5.717 E69.30221
G1 X84.604 Y6.231 E69.32453
G1 X84.69 Y7.012 E69.3572
G1 X84.69 Y57.601 E71.46045
G1 X84.65 Y58.136 E71.48275
G1 X84.531 Y58.659 E71.50505
G1 X84.336 Y59.158 E71.52733
G1 X84.068 Y59.623 E71.54964
G1 X83.735 Y60.043 E71.57192
G1 X83.343 Y60.409 E71.59422
G1 X82.901 Y60.712 E71.6165
G1 X82.418 Y60.947 E71.63883
G1 X81.907 Y61.107 E71.66109
G1 X81.377 Y61.19 E71.6834
G1 X81.09 Y61.201 E71.69534
G1 X-71.091 Y61.201 E78.02229
G1 X-71.626 Y61.161 E78.04459
G1 X-72.149 Y61.042 E78.06689
G1 X-72.648 Y60.847 E78.08917
G1 X-73.113 Y60.579 E78.11148
G1 X-73.533 Y60.246 E78.13376
G1 X-73.899 Y59.854 E78.15606
G1 X-74.202 Y59.412 E78.17834
G1 X-74.437 Y58.929 E78.20067
G1 X-74.597 Y58.418 E78.22293
G1 X-74.69 Y57.695 E78.25324
G1 X-74.856 Y51.307 E78.51891
G1 X-75.317 Y45.884 E78.74519
G1 X-76.086 Y40.49 E78.97171
G1 X-77.166 Y35.101 E79.20021
G1 X-77.802 Y32.513 E79.31101
G1 X-78.523 Y29.888 E79.42419
G1 X-80.202 Y24.669 E79.65212
G1 X-82.157 Y19.592 E79.87831
G1 X-84.422 Y14.58 E80.10697
G1 X-85.613 Y12.215 E80.21706
G1 X-89.219 Y5.872 E80.52041
G1 X-89.448 Y5.388 E80.54267
G1 X-89.603 Y4.874 E80.56499
G1 X-89.689 Y4.085 E80.59799
G1 X-89.631 Y-22.557 E81.70564
G1 X-89.699 Y-25.229 E81.81676
G1 X-89.7 Y-25.322 E81.82063
G1 X-89.69 Y-46.5 E82.70111
G1 X-89.65 Y-47.034 E82.72337
G1 X-89.531 Y-47.557 E82.74567
G1 X-89.335 Y-48.057 E82.768
G1 X-89.068 Y-48.521 E82.79025
G1 X-88.734 Y-48.941 E82.81256
G1 X-88.342 Y-49.307 E82.83486
G1 X-87.899 Y-49.61 E82.85717
G1 X-87.417 Y-49.845 E82.87947
G1 X-86.905 Y-50.005 E82.90177
G1 X-86.375 Y-50.087 E82.92407
G1 X-86.09 Y-50.098 E82.93592
G1 X66.091 Y-50.097 E89.26288
G1 X66.626 Y-50.057 E89.28518
G1 X67.149 Y-49.938 E89.30748
G1 X67.648 Y-49.743 E89.32975
G1 X68.113 Y-49.475 E89.35207
G1 X68.533 Y-49.142 E89.37435
G1 X68.899 Y-48.75 E89.39665
G1 X69.202 Y-48.308 E89.41893
G1 X69.437 Y-47.825 E89.44126
G1 X69.597 Y-47.314 E89.46352
G1 X69.69 Y-46.591 E89.49383
G1 X69.856 Y-40.204 E89.75946
G1 X70.317 Y-34.781 E89.98573
G1 X71.086 Y-29.387 E90.21226
G1 X72.166 Y-23.998 E90.44076
G1 X72.802 Y-21.41 E90.55156
M204 S5000
G0 F2520 X72.411 Y-21.322
M204 S3000
G1 F1260 X73.145 Y-18.655 E90.66656
G1 X74.823 Y-13.436 E90.89448
G1 X76.79 Y-8.33 E91.12197
G1 X79.057 Y-3.312 E91.3509
G1 X80.261 Y-.922 E91.46216
G1 X83.872 Y5.43 E91.76594
G1 X84.086 Y5.888 E91.78695
G1 X84.226 Y6.374 E91.80798
G1 X84.29 Y7.012 E91.83464
G1 X84.29 Y57.601 E93.93788
G1 X84.25 Y58.105 E93.9589
G1 X84.131 Y58.596 E93.97991
G1 X83.937 Y59.063 E94.00093
G1 X83.671 Y59.493 E94.02195
G1 X83.341 Y59.876 E94.04297
G1 X82.954 Y60.202 E94.06401
G1 X82.521 Y60.463 E94.08503
G1 X82.053 Y60.653 E94.10603
G1 X81.56 Y60.766 E94.12706
G1 X81.09 Y60.801 E94.14665
G1 X-71.091 Y60.801 E100.4736
G1 X-71.595 Y60.761 E100.49462
G1 X-72.086 Y60.642 E100.51563
G1 X-72.553 Y60.448 E100.53665
G1 X-72.983 Y60.182 E100.55767
G1 X-73.366 Y59.852 E100.57869
G1 X-73.692 Y59.465 E100.59973
G1 X-73.953 Y59.032 E100.62075
G1 X-74.143 Y58.564 E100.64175
G1 X-74.256 Y58.071 E100.66278
G1 X-74.29 Y57.684 E100.67893
G1 X-74.456 Y51.296 E100.9446
G1 X-74.921 Y45.83 E101.17267
G1 X-75.692 Y40.424 E101.3997
G1 X-76.775 Y35.019 E101.62888
G1 X-77.411 Y32.425 E101.73992
G1 X-78.145 Y29.758 E101.85492
G1 X-79.823 Y24.539 E102.08284
G1 X-81.79 Y19.433 E102.31033
G1 X-84.057 Y14.415 E102.53926
G1 X-85.261 Y12.025 E102.65052
G1 X-88.871 Y5.675 E102.9542
G1 X-89.085 Y5.217 E102.97522
G1 X-89.225 Y4.731 E102.99625
G1 X-89.289 Y4.086 E103.0232
G1 X-89.231 Y-22.566 E104.13126
G1 X-89.299 Y-25.239 E104.24243
G1 X-89.3 Y-25.322 E104.24588
G1 X-89.29 Y-46.5 E105.12636
G1 X-89.25 Y-47.003 E105.14733
G1 X-89.131 Y-47.495 E105.16838
G1 X-88.936 Y-47.961 E105.18938
G1 X-88.67 Y-48.391 E105.2104
G1 X-88.339 Y-48.774 E105.23145
G1 X-87.953 Y-49.1 E105.25245
G1 X-87.52 Y-49.361 E105.27347
G1 X-87.051 Y-49.55 E105.2945
G1 X-86.558 Y-49.664 E105.31553
G1 X-86.09 Y-49.698 E105.33504
G1 X66.091 Y-49.697 E111.66199
G1 X66.595 Y-49.657 E111.68301
G1 X67.086 Y-49.538 E111.70402
G1 X67.553 Y-49.344 E111.72504
G1 X67.983 Y-49.078 E111.74606
G1 X68.366 Y-48.748 E111.76708
G1 X68.692 Y-48.361 E111.78812
G1 X68.953 Y-47.928 E111.80914
G1 X69.143 Y-47.46 E111.83014
G1 X69.256 Y-46.967 E111.85117
G1 X69.29 Y-46.58 E111.86732
G1 X69.456 Y-40.193 E112.13295
G1 X69.921 Y-34.727 E112.36102
G1 X70.692 Y-29.321 E112.58805
G1 X71.775 Y-23.916 E112.81723
G1 X72.411 Y-21.322 E112.92827
M204 S5000
G1 F1500 E110.92827
G0 F2520 X66.765 Y-21.322
G0 X65.48 Y-21.322
G0 X65.1 Y-45.507
M204 S3000
;TYPE:WALL-INNER
G1 F1500 E113.01142
G1 F1260 X65.1 Y3.093 E115.03197
G1 X-85.1 Y3.093 E121.27656
G1 X-85.1 Y-16.412 E122.08749
G1 X-9 Y-16.412 E125.25136
G1 X-9 Y-26.002 E125.65006
G1 X-85.1 Y-26.002 E128.81393
G1 X-85.1 Y-45.507 E129.62486
G1 X65.1 Y-45.507 E135.86945
M204 S5000
G0 F2520 X65.5 Y-45.907
M204 S3000
G1 F1260 X65.5 Y3.493 E137.92326
G1 X-85.5 Y3.493 E144.20111
G1 X-85.5 Y-16.812 E145.04529
G1 X-9.4 Y-16.812 E148.20916
G1 X-9.4 Y-25.602 E148.57461
G1 X-85.5 Y-25.602 E151.73848
G1 X-85.5 Y-45.907 E152.58266
G1 X65.5 Y-45.907 E158.86051
M204 S5000
G0 F2520 X65.9 Y-46.307
M204 S3000
;TYPE:WALL-OUTER
G1 F1260 X65.9 Y3.893 E160.94759
G1 X-85.9 Y3.893 E167.2587
G1 X-85.9 Y-17.212 E168.13614
G1 X-9.8 Y-17.212 E171.30001
G1 X-9.8 Y-25.202 E171.6322
G1 X-85.9 Y-25.202 E174.79607
G1 X-85.9 Y-46.307 E175.67351
G1 X65.9 Y-46.307 E181.98462
M204 S5000
G0 F2520 X65.9 Y-46.107
G0 X65.43 Y-45.837
G0 X64.9 Y-45.307
G0 X64.376 Y-45.366
M204 S3000
;TYPE:SKIN
G1 F1260 X64.959 Y-44.783 E182.0189
G1 X65.029 Y-44.713
M204 S5000
G0 F2520 X64.959 Y-44.218
M204 S3000
G1 F1260 X63.81 Y-45.366 E182.08643
G1 X63.74 Y-45.436
M204 S5000
G0 F2520 X63.245 Y-45.366
M204 S3000
G1 F1260 X64.959 Y-43.652 E182.18721
G1 X65.029 Y-43.582
M204 S5000
G0 F2520 X64.959 Y-43.086
M204 S3000
G1 F1260 X62.679 Y-45.366 E182.32126
G1 X62.609 Y-45.436
M204 S5000
G0 F2520 X62.113 Y-45.366
M204 S3000
G1 F1260 X64.959 Y-42.521 E182.48857
G1 X65.029 Y-42.451
M204 S5000
G0 F2520 X64.959 Y-41.955
M204 S3000
G1 F1260 X61.547 Y-45.366 E182.68915
G1 X61.477 Y-45.436
M204 S5000
G0 F2520 X60.982 Y-45.366
M204 S3000
G1 F1260 X64.959 Y-41.389 E182.92298
G1 X65.029 Y-41.319
M204 S5000
G0 F2520 X64.959 Y-40.824
M204 S3000
G1 F1260 X60.416 Y-45.366 E183.19006
G1 X60.346 Y-45.436
M204 S5000
G0 F2520 X59.85 Y-45.366
M204 S3000
G1 F1260 X64.959 Y-40.258 E183.49042
G1 X65.029 Y-40.188
M204 S5000
G0 F2520 X64.959 Y-39.692
M204 S3000
G1 F1260 X59.285 Y-45.366 E183.82403
G1 X59.215 Y-45.436
M204 S5000
G0 F2520 X58.719 Y-45.366
M204 S3000
G1 F1260 X64.959 Y-39.127 E184.19089
G1 X65.029 Y-39.057
M204 S5000
G0 F2520 X64.959 Y-38.561
M204 S3000
G1 F1260 X58.153 Y-45.366 E184.59103
G1 X58.083 Y-45.436
M204 S5000
G0 F2520 X57.588 Y-45.366
M204 S3000
G1 F1260 X64.959 Y-37.995 E185.02441
G1 X65.029 Y-37.925
M204 S5000
G0 F2520 X64.959 Y-37.429
M204 S3000
G1 F1260 X57.022 Y-45.366 E185.49108
G1 X56.952 Y-45.436
M204 S5000
G0 F2520 X56.456 Y-45.366
M204 S3000
G1 F1260 X64.959 Y-36.864 E185.99099
G1 X65.029 Y-36.794
M204 S5000
G0 F2520 X64.959 Y-36.298
M204 S3000
G1 F1260 X55.891 Y-45.366 E186.52416
G1 X55.821 Y-45.436
M204 S5000
G0 F2520 X55.325 Y-45.366
M204 S3000
G1 F1260 X64.959 Y-35.732 E187.0906
G1 X65.029 Y-35.662
M204 S5000
G0 F2520 X64.959 Y-35.167
M204 S3000
G1 F1260 X54.759 Y-45.366 E187.69029
G1 X54.689 Y-45.436
M204 S5000
G0 F2520 X54.194 Y-45.366
M204 S3000
G1 F1260 X64.959 Y-34.601 E188.32323
G1 X65.029 Y-34.531
M204 S5000
G0 F2520 X64.959 Y-34.035
M204 S3000
G1 F1260 X53.628 Y-45.366 E188.98945
G1 X53.558 Y-45.436
M204 S5000
G0 F2520 X53.062 Y-45.366
M204 S3000
G1 F1260 X64.959 Y-33.47 E189.68892
G1 X65.029 Y-33.4
M204 S5000
G0 F2520 X64.959 Y-32.904
M204 S3000
G1 F1260 X52.497 Y-45.366 E190.42164
G1 X52.427 Y-45.436
M204 S5000
G0 F2520 X51.931 Y-45.366
M204 S3000
G1 F1260 X64.959 Y-32.338 E191.18764
G1 X65.029 Y-32.268
M204 S5000
G0 F2520 X64.959 Y-31.773
M204 S3000
G1 F1260 X51.365 Y-45.366 E191.98688
G1 X51.295 Y-45.436
M204 S5000
G0 F2520 X50.799 Y-45.366
M204 S3000
